assets/Other/icon-lose.svg

<?xml version="1.0" encoding="UTF-8"?>
<svg viewBox="0 0 35 35" version="1.1" xmlns="http://www.w3.org/2000/svg" xmlns:xlink="http://www.w3.org/1999/xlink">
    <title>icon-lose</title>
    <g id="icon-lose" stroke="none" stroke-width="1" fill-rule="evenodd">
        <path d="M30.1842049,15.2061732 L33.0692006,18.0911688 L32.1923882,18.9679812 L30.3468395,17.1224325 L29.4205296,18.0487424 L30.9903066,19.6185195 L30.1205653,20.4882608 L28.5507882,18.9184838 L27.4901281,19.9791439 L29.4063874,21.8954033 L28.529575,22.7722157 L25.5738687,19.8165094 L30.1842049,15.2061732 Z M27.8648947,12.7171573 C28.4164379,13.2687006 28.7417071,14.0182338 28.7699913,14.7819091 L27.5466966,14.9021172 C27.4618438,14.3788582 27.277996,13.9263099 26.966869,13.6151829 C26.6062446,13.2545584 26.2244069,13.1838478 25.9627774,13.4454773 C25.7506454,13.6576093 25.8129592,13.9373584 25.9558168,14.2996402 L26.4718943,15.5243712 C26.8113056,16.3163308 26.7830213,17.0375797 26.132483,17.688118 C25.3688077,18.4517933 24.0677312,18.4800776 22.9646447,17.376991 C22.3423907,16.754737 21.9393398,15.9274221 21.9322688,15.0011122 L23.1626346,14.873833 C23.1979899,15.4890159 23.4879037,16.1041988 23.8909545,16.5072496 C24.3222897,16.9385848 24.7041273,16.9810112 24.979899,16.7052395 C25.2698128,16.4153258 25.1001071,16.0617724 24.8667619,15.4890159 L24.5132085,14.6404877 C24.2374369,13.9687363 24.1808683,13.1202082 24.8526198,12.4484567 C25.6162951,11.6847814 26.9032294,11.7554921 27.8648947,12.7171573 Z M23.3747666,8.22702923 C24.6192745,9.47153716 24.5980613,11.1898066 23.0989949,12.688873 C21.5928575,14.1950105 19.8392327,14.251579 18.5947248,13.0070711 C17.3502168,11.7625631 17.4067854,10.0089383 18.9129228,8.50280087 C20.4190602,6.99666343 22.1302587,6.98252129 23.3747666,8.22702923 Z M19.980654,9.57053211 C19.0543442,10.496842 18.8634253,11.4797204 19.4927504,12.1090455 C20.1220754,12.7383705 21.1049538,12.5474517 22.0312637,11.6211418 C22.9505025,10.701903 23.106066,9.75437987 22.476741,9.12505484 C21.8474159,8.4957298 20.8998929,8.6512933 19.980654,9.57053211 Z M18.0078261,3.02979439 L19.0472731,4.06924135 L15.3137493,7.80276516 L17.1380848,9.62710065 L16.2612724,10.5039131 L13.3974899,7.6401306 L18.0078261,3.02979439 Z" fill-rule="nonzero"></path>
    </g>
</svg>

<svg xmlns="http://www.w3.org/2000/svg" viewBox="0 0 35 35"><title>icon-lose</title><path fill-rule="nonzero" d="m30.184 15.206 2.885 2.885-.877.877-1.845-1.846-.926.927 1.57 1.57-.87.87-1.57-1.57-1.06 1.06 1.915 1.916-.876.877-2.956-2.955zm-2.32-2.489c.552.552.878 1.301.906 2.065l-1.223.12c-.085-.523-.269-.976-.58-1.287-.36-.36-.743-.431-1.004-.17-.212.213-.15.492-.007.855l.516 1.224c.34.792.311 1.514-.34 2.164-.763.764-2.064.792-3.167-.311-.623-.622-1.026-1.45-1.033-2.376l1.23-.127c.036.615.326 1.23.729 1.633.431.432.813.474 1.089.198.29-.29.12-.643-.113-1.216l-.354-.849c-.276-.671-.332-1.52.34-2.192.763-.763 2.05-.693 3.012.27m-4.49-4.49c1.245 1.245 1.224 2.963-.275 4.462-1.506 1.506-3.26 1.563-4.504.318-1.245-1.244-1.188-2.998.318-4.504s3.217-1.52 4.462-.276m-3.393 1.344c-.927.926-1.118 1.909-.488 2.538.63.63 1.612.438 2.538-.488.92-.92 1.075-1.867.446-2.496-.63-.63-1.577-.474-2.496.446M18.008 3.03l1.04 1.04-3.734 3.733 1.824 1.824-.877.877-2.864-2.864z"/></svg>
